src/components/text-mode/text.svg

<?xml version="1.0" encoding="UTF-8" standalone="no"?>
<svg width="20px" height="20px" viewBox="0 0 20 20" version="1.1" xmlns="http://www.w3.org/2000/svg" xmlns:xlink="http://www.w3.org/1999/xlink">
    <!-- Generator: Sketch 43.2 (39069) - http://www.bohemiancoding.com/sketch -->
    <title>text</title>
    <desc>Created with Sketch.</desc>
    <defs></defs>
    <g id="Page-1" stroke="none" stroke-width="1" fill="none" fill-rule="evenodd">
        <g id="text" fill="#575E75">
            <path d="M16,4.35294118 L16,6.85176471 C16,7.04941176 15.8447059,7.20470588 15.6470588,7.20470588 L14.8988235,7.20470588 C14.7576471,7.20470588 14.6164706,7.12 14.5741176,6.99294118 L14.2070588,6.11764706 L11.0588235,6.11764706 L11.0588235,14.2917647 L11.92,14.6164706 C12.0611765,14.6729412 12.16,14.8 12.16,14.9552941 L12.16,15.6470588 C12.16,15.8447059 11.9905882,16 11.8070588,16 L8.20705882,16 C8.02352941,16 7.85411765,15.8447059 7.85411765,15.6470588 L7.85411765,14.9552941 C7.85411765,14.8 7.95294118,14.6729412 8.08,14.6164706 L8.94117647,14.2917647 L8.94117647,6.11764706 L5.80705882,6.11764706 L5.44,6.99294118 C5.38352941,7.12 5.25647059,7.20470588 5.11529412,7.20470588 L4.35294118,7.20470588 C4.16941176,7.20470588 4,7.04941176 4,6.85176471 L4,4.35294118 C4,4.15529412 4.16941176,4 4.35294118,4 L15.6470588,4 C15.8447059,4 16,4.15529412 16,4.35294118" id="text-icon"></path>
        </g>
    </g>
</svg>

<svg width="20" height="20" xmlns="http://www.w3.org/2000/svg"><path d="M16 4.35294v2.49882c0 .19765-.1553.35295-.35294.35295h-.74824c-.14117 0-.28235-.08471-.3247-.21177l-.36706-.8753h-3.14824v8.17412l.86118.32471c.14118.05647.24.18353.24.33882v.69177c0 .19765-.16941.35294-.35294.35294h-3.6c-.18353 0-.35294-.1553-.35294-.35294v-.69177c0-.15529.09882-.28235.22588-.33882l.86118-.3247V6.11764H5.80706l-.36706.8753c-.05647.12705-.18353.21176-.3247.21176h-.76236C4.16941 7.2047 4 7.0494 4 6.85176V4.35294C4 4.1553 4.16941 4 4.35294 4h11.29412C15.8447 4 16 4.1553 16 4.35294" fill="#575E75" fill-rule="evenodd"/></svg>
